X:1
T:Reinlender i D
L:1/8
M:4/4
I:linebreak $
K:D
V:1 treble 
V:1
|:"D" f>edc d2 F2 |"Em" B>AGF G2 E2 |1,3"A7" e2 ed c2 cB | A>BAG"D" F2 D2 :|2,4"A7" e2 ed c>ABc | %5
"D" d2 d2 d4 ::$"D" A2 f2 f>edc |"G" B2 g2"Em" g>fed |1,3"A7" c2 c2 B2 B2 | ^G>ABA"D" F2 D2 :|2,4 %10
"A7" c2 c2 c>ABc |"D" d2 d2 d4 :| %12
